X:48
T:Washington's March 1665
T:John Malchair's Third Collection of Tunes
%%VWML:Malchair-3619-p48
F:https://www.vwml.org/record/Malchair/3619/p48
F:www.vwml.org/topics/historic-dance-and-tune-books/Malchair
Z:Steve Mansfield Jan 2020
M:3/2
L:1/4
K:A
e2c e2A | e2c e2A | f2d e>dc | dec B2A :: f2e f2B | f2e f2B | efc fdB | gac B2c | 
cc2 dd2 | eea e>dc | dec B>A B/ c/ | AAA A3 ||ce (f/ > e/)gB2 | ce(f/ > e/) cA2 | 
(c/ < A/) (c/ < A/) (c/ < A/) (d/ < B/) (d/ < B/) (d/ < B/) | cef/ e/ cB2 :: ce(f/ g/) Bd(f/ g/) | \
    Ac(e/ a/) Ac(e/ a/) | cA(f/ g/) Bd(f/ g/) | 
A/ B/ c/ d/ e/ f/ e/ d/ c/ B/ c/ A/ | (c/ < A/) (c/ < A/) (c/ < A/) (d/ < B/) (d/ < B/) (d/ < B/) | cef/ e/ cA2 :|
W:
T:The Round
T:John Malchair's Third Collection of Tunes
%%VWML:Malchair-3619-p48
F:https://www.vwml.org/record/Malchair/3619/p48
F:www.vwml.org/topics/historic-dance-and-tune-books/Malchair
Z:Steve Mansfield Jan 2020
M:6/4
L:1/4
K:C
G | A/B/cc c>dc | cGc c2A | B/c/dd d>ed | dAd d2B |  A/B/cc c>dc | cGc c2A | B>cB AGg | e3 c2 ||
c | e/f/gg g>ag | gcg g2e | f/g/aa a_ba | ada a2g | e/f/gg g>ag | gcg g2e | a>gf edg | e3 c2 ||

